X: 2
T: Norah Creeney
T: Nra Chronna
M: 12/8
L: 1/8
R: slide
K: Gmaj
|: A |\
GDG G2 A B2 G d2 B | GDG GA_B A2 B cBA |
GDG G2 A B2 G dd/c/B | A2 e e^de A2 B c2 :|
|: ^c |\
d^cd dB/=c/d B2 G d2 B | d^cd d=cB A2 B c2 ^c |
d^cd d2 =c BG/A/B dcB | A2 e e2 c A2 B c2 :|
